X:80
T:Cuddy Clauder
Z:Jack Campin, http://www.campin.me.uk/
S:Northumbrian Minstrelsy
M:6/8
L:1/16
K:G
G2|B3`cd2 Td2BcdB|d2Tg4  TB4  G2|B3cd2 Td2BcdB|A2 Tf4 TA4
e2|B3`cd2 Td2BcdB|g2`d2e2 g2d2B2|cBABcA dcBcdB|A2 Td4 TA4:|
e2|g2d2e2  g2d2B2|d2Tg4  TB4  G2|g2d2e2 g2d2B2|A2 Tf4 TA4
e2|g2d2e2  g2d2B2|d2efge  g2d2B2|cBABcA dcBcdB|A2 Tf4 TA4:|

